X: 16348
T: Gullane, The
R: polka
M: 2/4
K: Gmajor
|:B/c/|dg ed|GB BA/G/|FA cA|ed BB/c/|
dg e/e/d|GB- BA/G/|F/G/A cA|AG G:|
|:G/A/|BA/B/ cB/c/|ed BG|de/d/ cA|ed B>^A|
B2 cB/c/|ed BG|de/d/ cA|AG G:|

